X:89
T: Schloss in Oesterreich
N: Q2024H
O: Nordeuropa, Norwegen
N: Norwegische Fassung der Ballade.
R: Ballade, Gefangenschaft, Hinrichtung, Tod, Vergeltung
M: 6/4
L: 1/8
K: D
A2 | A3AG2A4d2 | d4=c2A3A
c2 | _B4A2G4=F2 | G2A4-A4
d2 | d4=c2A4_B2 | A4G2E3=F
A2 | =c4_B2A3G=F2 | E2D4-D4

